32x32/mimetypes/application-x-virtualbox-vmdk.svg

<svg xmlns="http://www.w3.org/2000/svg" width="32" height="32" version="1.1">
 <path style="opacity:0.2" d="M 6.375,3 C 5.61325,3 5,3.6244 5,4.4 V 29.6 C 5,30.37504 5.61325,31 6.375,31 h 19.25 C 26.3862,31 27,30.37504 27,29.6 V 12 L 20,10 18,3 Z"/>
 <path style="fill:#3a5cac" d="M 6.375,2 C 5.61325,2 5,2.6244 5,3.4 V 28.6 C 5,29.37504 5.61325,30 6.375,30 h 19.25 C 26.3862,30 27,29.37504 27,28.6 V 11 L 20,9 18,2 Z"/>
 <path style="opacity:0.2" d="M 27,12 18,3 v 7.59375 C 18,11.373375 18.62775,12 19.40625,12 Z"/>
 <path style="fill:#5b7cc8" d="M 27,11 18,2 V 9.59375 C 18,10.373375 18.62775,11 19.40625,11 Z"/>
 <path style="opacity:0.2;fill:#f4f4f7" d="M 6.375,2 C 5.61325,2 5,2.6247906 5,3.4003906 v 1 C 5,3.6247906 5.61325,3 6.375,3 H 18 V 2 Z"/>
 <path style="opacity:0.2" d="m 15.3125,13.0005 -3.4375,10.875 -2.1161253,-6.875 h -4.758875 v 2 h 3.480125 L 11.875,28.688 l 3.4375,-11 2.0625,6.875 2.75,-7.5625 2.0625,7 H 27 V 22.00025 H 23.5625 L 20.125,13.563 l -2.75,5.5 z"/>
 <path style="fill:#f4f4f7" d="M 15.3125,12 11.875,22.875 9.7588747,16 h -4.758875 v 2 h 3.480125 l 3.3948753,9.6875 3.4375,-11 2.0625,6.875 2.75,-7.5625 2.0625,7 H 27 v -2.00025 h -3.4375 l -3.4375,-8.43725 -2.75,5.5 z"/>
</svg>

<svg xmlns="http://www.w3.org/2000/svg" width="32" height="32"><path style="opacity:.2" d="M6.375 3C5.613 3 5 3.624 5 4.4v25.2c0 .775.613 1.4 1.375 1.4h19.25c.761 0 1.375-.625 1.375-1.4V12l-7-2-2-7z"/><path style="fill:#3a5cac" d="M6.375 2C5.613 2 5 2.624 5 3.4v25.2c0 .775.613 1.4 1.375 1.4h19.25c.761 0 1.375-.625 1.375-1.4V11l-7-2-2-7z"/><path style="opacity:.2" d="m27 12-9-9v7.594c0 .78.628 1.406 1.406 1.406z"/><path style="fill:#5b7cc8" d="m27 11-9-9v7.594c0 .78.628 1.406 1.406 1.406z"/><path style="opacity:.2;fill:#f4f4f7" d="M6.375 2C5.613 2 5 2.625 5 3.4v1C5 3.625 5.613 3 6.375 3H18V2z"/><path style="opacity:.2" d="m15.313 13-3.438 10.876L9.759 17H5v2h3.48l3.395 9.687 3.438-11 2.062 6.875L20.125 17l2.063 7H27v-2h-3.438l-3.437-8.437-2.75 5.5z"/><path style="fill:#f4f4f7" d="m15.313 12-3.438 10.875L9.759 16H5v2h3.48l3.395 9.688 3.438-11 2.062 6.875L20.125 16l2.063 7H27v-2h-3.438l-3.437-8.438-2.75 5.5z"/></svg>
